src/images/youtube.svg

<svg width="32" height="24" viewBox="0 0 32 24" fill="none" xmlns="http://www.w3.org/2000/svg">
<mask id="mask0" mask-type="alpha" maskUnits="userSpaceOnUse" x="0" y="0" width="32" height="24">
<path fill-rule="evenodd" clip-rule="evenodd" d="M0 0.699219H31.875V23.1992H0V0.699219Z" fill="white"/>
</mask>
<g mask="url(#mask0)">
<path fill-rule="evenodd" clip-rule="evenodd" d="M12.6776 16.6976V7.20081L21.0085 11.9494L12.6776 16.6976ZM31.2089 4.21267C30.8423 2.82964 29.7622 1.74057 28.3908 1.37095C25.9051 0.699219 15.9375 0.699219 15.9375 0.699219C15.9375 0.699219 5.96986 0.699219 3.48415 1.37095C2.11281 1.74057 1.03268 2.82964 0.666115 4.21267C0 6.71924 0 11.9492 0 11.9492C0 11.9492 0 17.179 0.666115 19.6858C1.03268 21.0688 2.11281 22.1579 3.48415 22.5277C5.96986 23.1992 15.9375 23.1992 15.9375 23.1992C15.9375 23.1992 25.9051 23.1992 28.3908 22.5277C29.7622 22.1579 30.8423 21.0688 31.2089 19.6858C31.875 17.179 31.875 11.9492 31.875 11.9492C31.875 11.9492 31.875 6.71924 31.2089 4.21267Z" fill="#7F7F7F"/>
</g>
</svg>

<svg width="32" height="24" fill="none" xmlns="http://www.w3.org/2000/svg"><mask id="a" maskUnits="userSpaceOnUse" x="0" y="0" width="32" height="24"><path fill-rule="evenodd" clip-rule="evenodd" d="M0 .7h31.875v22.5H0V.7z" fill="#fff"/></mask><g mask="url(#a)"><path fill-rule="evenodd" clip-rule="evenodd" d="M12.678 16.698V7.2l8.33 4.748-8.33 4.749zm18.53-12.485a4.009 4.009 0 00-2.817-2.842C25.905.699 15.938.699 15.938.699S5.97.7 3.483 1.371A4.009 4.009 0 00.666 4.213C0 6.719 0 11.949 0 11.949s0 5.23.666 7.737a4.01 4.01 0 002.818 2.842c2.486.671 12.454.671 12.454.671s9.967 0 12.453-.671a4.01 4.01 0 002.818-2.842c.666-2.507.666-7.737.666-7.737s0-5.23-.666-7.736z" fill="#7F7F7F"/></g></svg>
